Numix-Light-GalliumOS/scalable/actions/media-seek-backward-symbolic.svg

<svg xmlns="http://www.w3.org/2000/svg" viewBox="0 0 16 16" width="16" height="16">
 <path d="m 13.990991,4 c -0.178982,0.008 -0.354338,0.0592 -0.504504,0.15625 l -5.0450456,3 C 8.1565013,7.33596 8,7.66798 8,8 8,8.33202 8.1565013,8.66404 8.4414414,8.84375 l 5.0450456,3 C 13.636653,11.94075 13.812009,11.992 13.990991,12 L 14.148649,12 15,12 15,4 14.148649,4 z" fill="#353535" color="#000000"/>
 <path d="M 6.990991,4 C 6.8120089,4.008 6.6366533,4.0592 6.4864865,4.15625 l -5.0450455,3 C 1.156501,7.33596 1,7.66798 1,8 1,8.33202 1.156501,8.66404 1.441441,8.84375 l 5.0450455,3 C 6.6366533,11.94075 6.8120089,11.992 6.990991,12 L 7.1486486,12 8,12 8,4 7.1486486,4 z" fill="#353535" color="#000000"/>
</svg>

<svg xmlns="http://www.w3.org/2000/svg" viewBox="0 0 16 16">
 <path d="m 13.991 4 c -0.179 0.008 -0.354 0.059 -0.505 0.156 l -5.05 3 c -0.285 0.18 -0.441 0.512 -0.441 0.844 0 0.332 0.157 0.664 0.441 0.844 l 5.05 3 c 0.15 0.097 0.326 0.148 0.505 0.156 l 0.158 0 0.851 0 0 -8 -0.851 0 z" style="fill:#353535;color:#000"/>
 <path d="m 6.991 4 c -0.179 0.008 -0.354 0.059 -0.505 0.156 l -5.05 3 c -0.285 0.18 -0.441 0.512 -0.441 0.844 0 0.332 0.157 0.664 0.441 0.844 l 5.05 3 c 0.15 0.097 0.326 0.148 0.505 0.156 l 0.158 0 0.851 0 0 -8 -0.851 0 z" style="fill:#353535;color:#000"/>
</svg>
